images/swimming_theme_light.svg

<svg width="50" height="50" viewBox="0 0 50 50" fill="none" xmlns="http://www.w3.org/2000/svg">
<path d="M5.87031 10.8124C5.67984 11.0322 5.32515 11.4701 5.08208 11.7856C4.83892 12.101 4.46296 12.6171 4.24653 12.9325C4.03011 13.248 3.5795 13.9715 3.2452 14.5405C2.911 15.1095 2.43863 16.0127 2.19557 16.5477C1.95251 17.0827 1.60201 17.929 1.41652 18.4284C1.23112 18.9279 0.930783 19.9171 0.749291 20.6268C0.567701 21.3365 0.345811 22.3688 0.256236 22.9208C0.135729 23.6633 0.0812813 24.8006 0.0467392 27.2936L0 30.6628H17.7085L17.6539 28.7751C17.6239 27.7368 17.5286 26.4788 17.442 25.9794C17.3555 25.4799 17.1743 24.6412 17.0395 24.1155C16.9047 23.5898 16.6606 22.7726 16.4972 22.2995C16.3336 21.8264 15.9044 20.8371 15.5433 20.1011C15.182 19.3651 14.6597 18.4055 14.3825 17.9686C14.1053 17.5317 13.5377 16.7372 13.1211 16.203C12.7047 15.6689 11.8808 14.7537 11.2905 14.1693C10.7002 13.5848 9.8689 12.8377 9.44337 12.509C9.01774 12.1804 8.35909 11.7066 7.97972 11.4561C7.60024 11.2057 7.04835 10.8684 6.75318 10.7067L6.21651 10.4127L5.87031 10.8124Z" fill="#0086FF"/>
<path d="M7.43621 33.6809C7.14105 33.7569 6.5792 33.9724 6.18762 34.16C5.77292 34.3585 5.22288 34.7331 4.87034 35.057C4.53741 35.3628 4.1552 35.7885 4.02103 36.0028L3.77709 36.3925L0.0203935 36.3977V39.2651H2.94769V39.595C2.94769 39.7764 2.99619 40.1527 3.05551 40.4313C3.11484 40.7098 3.3337 41.2972 3.54193 41.7365C3.84549 42.3769 4.0706 42.682 4.67821 43.2761C5.27665 43.8614 5.61017 44.0985 6.2653 44.4043C6.72147 44.6174 7.32742 44.8385 7.61176 44.8958C7.94644 44.9632 9.93281 45 13.242 45C16.5988 45 18.5328 44.9637 18.8723 44.8944C19.1566 44.8363 19.7562 44.6219 20.2047 44.4179C20.8611 44.1193 21.1705 43.8998 21.7918 43.2911C22.4131 42.6825 22.6373 42.3795 22.9421 41.7365C23.1503 41.2972 23.3692 40.7098 23.4285 40.4313C23.4879 40.1527 23.5364 39.7764 23.5364 39.595V39.2651H26.4637V39.595C26.4637 39.7764 26.5121 40.1527 26.5715 40.4313C26.6308 40.7098 26.8497 41.2972 27.0579 41.7365C27.3615 42.3769 27.5866 42.682 28.1942 43.2761C28.7926 43.8614 29.1261 44.0985 29.7813 44.4043C30.2374 44.6174 30.8434 44.8385 31.1277 44.8958C31.462 44.9632 33.4352 45 36.7092 45C40.0303 45 41.9516 44.9637 42.2907 44.8944C42.575 44.8363 43.1746 44.6219 43.6231 44.4179C44.2795 44.1193 44.5889 43.8998 45.2102 43.2911C45.8315 42.6825 46.0557 42.3795 46.3605 41.7365C46.5687 41.2972 46.7876 40.7098 46.8469 40.4313C46.9062 40.1527 46.9547 39.7764 46.9547 39.595V39.2651H49.9796V36.3977L46.1253 36.3925L45.8814 36.0028C45.7472 35.7885 45.365 35.3628 45.0321 35.057C44.6788 34.7324 44.1304 34.3591 43.7148 34.1604C43.3232 33.9731 42.7412 33.7547 42.4213 33.6751C41.9382 33.5547 40.9713 33.5303 36.7092 33.5303C32.447 33.5303 31.4802 33.5547 30.9971 33.6751C30.6772 33.7547 30.0952 33.9731 29.7036 34.1604C29.288 34.3591 28.7396 34.7324 28.3863 35.057C28.0534 35.3628 27.6712 35.7885 27.537 36.0028L27.2931 36.3925H22.707L22.463 36.0028C22.3288 35.7885 21.9466 35.3628 21.6137 35.057C21.2604 34.7324 20.712 34.3591 20.2964 34.1604C19.9048 33.9731 19.3228 33.7547 19.0029 33.6751C18.5174 33.5542 17.5584 33.5313 13.1971 33.5366C8.97119 33.5416 7.87033 33.5693 7.43621 33.6809Z" fill="#0086FF"/>
<path d="M43.403 10.5247C43.301 10.5874 42.7741 10.9218 42.232 11.268C41.69 11.6141 40.9172 12.1555 40.5147 12.4709C40.1122 12.7864 39.4474 13.3524 39.0375 13.7288C38.6275 14.1052 37.9249 14.8467 37.4762 15.3767C37.0275 15.9067 36.3662 16.7695 36.0067 17.2941C35.6473 17.8187 35.089 18.7552 34.7663 19.3753C34.4437 19.9953 34.021 20.8854 33.8272 21.3532C33.6333 21.8211 33.3229 22.7415 33.1373 23.3987C32.9517 24.0558 32.7099 25.1096 32.5999 25.7404C32.4687 26.4929 32.3813 27.5367 32.3457 28.7751L32.2915 30.6628H50L49.9533 27.2936C49.9185 24.7833 49.8648 23.6685 49.7424 22.9208C49.6521 22.3688 49.4663 21.4655 49.3294 20.9136C49.1926 20.3616 48.9299 19.4583 48.7457 18.9064C48.5614 18.3544 48.1867 17.4081 47.9129 16.8036C47.6392 16.199 47.1974 15.3173 46.931 14.8442C46.6647 14.371 46.1622 13.5625 45.8143 13.0474C45.4663 12.5324 44.8682 11.7259 44.4851 11.2553C44.1019 10.7847 43.7435 10.4021 43.6885 10.4053C43.6333 10.4083 43.5049 10.4621 43.403 10.5247Z" fill="#0086FF"/>
<path d="M22.2679 2.13426C21.6507 2.2024 20.7024 2.34453 20.1606 2.44986C19.6187 2.55519 18.7045 2.77474 18.1289 2.93761C17.5533 3.10058 16.5696 3.43072 15.9428 3.67139C15.316 3.91206 14.3122 4.35967 13.7121 4.66601C13.1121 4.97244 12.2559 5.45044 11.8094 5.72839C11.363 6.00634 10.5806 6.54246 10.0708 6.91981C9.56094 7.29717 8.9749 7.7507 8.76843 7.92771L8.39315 8.24963L9.50025 8.98398C10.1092 9.38781 10.9673 10.0017 11.4071 10.3482C11.8469 10.6947 12.663 11.4251 13.2207 11.9714C13.7783 12.5176 14.5673 13.366 14.974 13.8566C15.3806 14.3471 16.0434 15.2328 16.4468 15.8246C16.8502 16.4165 17.4697 17.4584 17.8235 18.14C18.1774 18.8217 18.6645 19.8742 18.9059 20.479C19.1473 21.0837 19.4986 22.1278 19.6866 22.7993C19.8746 23.4706 20.1152 24.5146 20.2213 25.1191C20.3274 25.7237 20.4573 26.7344 20.51 27.3653C20.5628 27.9961 20.6066 28.9962 20.6075 29.5875L20.6091 30.6628H29.391V29.5688C29.391 28.9671 29.4382 27.9241 29.496 27.251C29.5538 26.5779 29.7063 25.4645 29.835 24.7768C29.9637 24.0891 30.2204 23.0138 30.4054 22.3872C30.5904 21.7607 30.9452 20.7535 31.1938 20.1489C31.4424 19.5444 31.91 18.5551 32.2328 17.9505C32.5556 17.346 33.1849 16.3137 33.6313 15.6566C34.0777 14.9995 34.8575 13.9887 35.3641 13.4104C35.8707 12.8322 36.6922 11.9808 37.1898 11.5185C37.6872 11.0563 38.481 10.3852 38.9537 10.0274C39.4263 9.66959 40.2163 9.12315 40.7092 8.81299L41.6055 8.24906L41.1821 7.88499C40.9492 7.68484 40.3634 7.22796 39.8804 6.86982C39.3974 6.51168 38.537 5.93733 37.9684 5.59353C37.3997 5.24982 36.5832 4.79552 36.1539 4.584C35.7244 4.37257 34.9436 4.02437 34.4185 3.81037C33.8934 3.59626 32.9802 3.2711 32.389 3.08777C31.7979 2.90435 30.7827 2.64428 30.133 2.5097C29.4834 2.37522 28.3591 2.20336 27.6346 2.12785C26.9101 2.05234 25.6586 1.99499 24.8536 2.00035C24.0486 2.0057 22.885 2.06601 22.2679 2.13426Z" fill="#0069B7"/>
</svg>

<svg width="50" height="50" fill="none" xmlns="http://www.w3.org/2000/svg"><path d="M5.87 10.812a26.9 26.9 0 0 0-1.623 2.12 34.826 34.826 0 0 0-1.002 1.608 26.304 26.304 0 0 0-1.05 2.008 34.907 34.907 0 0 0-.778 1.88c-.186.5-.486 1.49-.668 2.199-.181.71-.403 1.742-.493 2.294-.12.742-.175 1.88-.21 4.373L0 30.663h17.709l-.055-1.888c-.03-1.038-.125-2.296-.212-2.796a29.08 29.08 0 0 0-.402-1.863 28.202 28.202 0 0 0-.543-1.817c-.163-.473-.593-1.462-.954-2.198s-.883-1.695-1.16-2.132a27.527 27.527 0 0 0-1.262-1.766 26.077 26.077 0 0 0-1.83-2.034c-.59-.584-1.422-1.331-1.848-1.66a29.753 29.753 0 0 0-1.463-1.053c-.38-.25-.932-.588-1.227-.75l-.536-.293-.347.4ZM7.436 33.68a8.527 8.527 0 0 0-1.248.48 6.132 6.132 0 0 0-1.318.897c-.333.306-.715.731-.849.946l-.244.39-3.757.005v2.867h2.928v.33c0 .181.048.558.108.836.059.279.278.866.486 1.306.303.64.529.945 1.136 1.54.599.584.932.822 1.587 1.127.456.213 1.062.434 1.347.492.334.067 2.32.104 5.63.104 3.357 0 5.29-.036 5.63-.106.285-.058.884-.272 1.333-.476.656-.299.966-.518 1.587-1.127.621-.608.845-.911 1.15-1.554.208-.44.427-1.027.486-1.306.06-.278.108-.655.108-.836v-.33h2.928v.33c0 .181.048.558.108.836.059.279.278.866.486 1.306.303.64.529.945 1.136 1.54.599.584.932.822 1.587 1.127.456.213 1.062.434 1.347.492.334.067 2.307.104 5.581.104 3.321 0 5.243-.036 5.582-.106.284-.058.884-.272 1.332-.476.657-.299.966-.518 1.587-1.127.621-.608.846-.911 1.15-1.554.209-.44.428-1.027.487-1.306.06-.278.108-.655.108-.836v-.33h3.025v-2.867l-3.855-.006-.244-.39c-.134-.214-.516-.64-.849-.945a6.109 6.109 0 0 0-1.317-.897 8.397 8.397 0 0 0-1.294-.485c-.483-.12-1.45-.145-5.712-.145s-5.229.025-5.712.145c-.32.08-.902.298-1.293.485a6.109 6.109 0 0 0-1.318.897c-.333.306-.715.731-.849.946l-.244.39h-4.586l-.244-.39c-.134-.215-.516-.64-.85-.946a6.109 6.109 0 0 0-1.317-.897 8.397 8.397 0 0 0-1.293-.485c-.486-.12-1.445-.144-5.806-.138-4.226.005-5.327.032-5.76.144Zm35.967-23.155c-.102.062-.629.397-1.171.743s-1.315.887-1.717 1.203a28.97 28.97 0 0 0-1.477 1.258 22.119 22.119 0 0 0-1.562 1.648c-.448.53-1.11 1.393-1.47 1.917a24.593 24.593 0 0 0-1.24 2.081 31.55 31.55 0 0 0-.939 1.978 22.65 22.65 0 0 0-.69 2.046c-.185.657-.427 1.71-.537 2.341-.131.753-.219 1.797-.254 3.035l-.054 1.888H50l-.047-3.37c-.035-2.51-.088-3.624-.21-4.372a30.663 30.663 0 0 0-.414-2.007 31.99 31.99 0 0 0-.583-2.008 26.685 26.685 0 0 0-.833-2.102 30.52 30.52 0 0 0-.982-1.96 31.599 31.599 0 0 0-1.117-1.797 30.38 30.38 0 0 0-1.329-1.792c-.383-.47-.742-.853-.797-.85a.849.849 0 0 0-.285.12Z" fill="#0086FF"/><path d="M22.268 2.134c-.617.068-1.566.21-2.107.316-.542.105-1.457.325-2.032.488a30.89 30.89 0 0 0-2.186.733c-.627.241-1.63.689-2.23.995-.6.306-1.457.784-1.904 1.062a32.29 32.29 0 0 0-3.041 2.2l-.375.322 1.107.734a35.282 35.282 0 0 1 1.907 1.364c.44.347 1.256 1.077 1.814 1.623a30.379 30.379 0 0 1 1.753 1.886c.407.49 1.07 1.376 1.473 1.968a27.35 27.35 0 0 1 1.377 2.315c.353.682.84 1.734 1.082 2.339.241.605.593 1.649.78 2.32.189.672.43 1.716.535 2.32.106.605.236 1.615.289 2.246.053.631.097 1.631.098 2.223l.001 1.075h8.782v-1.094c0-.602.047-1.645.105-2.318.058-.673.21-1.787.339-2.474.129-.688.385-1.763.57-2.39.185-.626.54-1.634.789-2.238.248-.605.716-1.594 1.039-2.198a30.77 30.77 0 0 1 1.398-2.294 28.02 28.02 0 0 1 1.733-2.247 31.129 31.129 0 0 1 1.826-1.892 27.87 27.87 0 0 1 1.764-1.49 29.945 29.945 0 0 1 1.755-1.215l.896-.564-.423-.364c-.233-.2-.819-.657-1.302-1.015a29.629 29.629 0 0 0-1.912-1.276 29.977 29.977 0 0 0-1.814-1.01c-.43-.211-1.21-.56-1.736-.774a30.233 30.233 0 0 0-2.029-.722 29.233 29.233 0 0 0-2.256-.578 30.59 30.59 0 0 0-2.498-.382A30.586 30.586 0 0 0 24.854 2c-.805.006-1.969.066-2.586.134Z" fill="#0069B7"/></svg>
